public/flags/SE.svg

<svg fill="none" height="53" viewBox="0 0 61 53" width="61" xmlns="http://www.w3.org/2000/svg" xmlns:xlink="http://www.w3.org/1999/xlink"><mask id="a" height="43" maskUnits="userSpaceOnUse" width="59" x="1" y="3"><rect fill="#fff" height="42.5" rx="4.24286" width="59" x="1" y="3"/></mask><rect fill="#fff" height="42.5" rx="4.24286" width="59" x="1" y="3"/><g mask="url(#a)"><path d="m1 3h59v42.5h-59z" fill="#157cbb"/><path clip-rule="evenodd" d="m1 28.5h16.8571v17h8.4286v-17h33.7143v-8.5h-33.7143v-17h-8.4286v17h-16.8571z" fill="#ffd34d" fill-rule="evenodd"/></g></svg>

<svg width="61" height="53" viewBox="0 0 61 53" fill="none" xmlns="http://www.w3.org/2000/svg">
<rect x="1" y="3" width="59" height="42.5" rx="4.24286" fill="white"/>
<mask id="mask0" mask-type="alpha" maskUnits="userSpaceOnUse" x="1" y="3" width="59" height="43">
<rect x="1" y="3" width="59" height="42.5" rx="4.24286" fill="white"/>
</mask>
<g mask="url(#mask0)">
<rect x="1" y="3" width="59" height="42.5" fill="#157CBB"/>
<path fill-rule="evenodd" clip-rule="evenodd" d="M1 28.5H17.8571V45.5H26.2857V28.5H60V20H26.2857V3H17.8571V20H1V28.5Z" fill="#FFD34D"/>
</g>
</svg>
